icon/lg/vault-icon.svg

<?xml version="1.0" encoding="UTF-8"?>
<svg viewBox="0 0 256 256" version="1.1" xmlns="http://www.w3.org/2000/svg" preserveAspectRatio="xMidYMid" height="1em" width="1em">
  <g>
    <path d="M-2.84217094e-13,-1.42108547e-14 L127.559449,256 L256,-1.42108547e-14 L-2.84217094e-13,-1.42108547e-14 Z M142.698373,51.3842303 L157.556946,51.3842303 L157.556946,66.2428035 L142.698373,66.2428035 L142.698373,51.3842303 Z M113.141427,110.738423 L98.3229036,110.738423 L98.3229036,95.9198999 L113.141427,95.9198999 L113.141427,110.738423 Z M113.141427,88.4705882 L98.3229036,88.4705882 L98.3229036,73.6921151 L113.141427,73.6921151 L113.141427,88.4705882 Z M113.141427,66.2428035 L98.3229036,66.2428035 L98.3229036,51.3842303 L113.141427,51.3842303 L113.141427,66.2428035 Z M135.569462,133.006258 L120.750939,133.006258 L120.750939,118.147685 L135.569462,118.147685 L135.569462,133.006258 Z M135.569462,110.738423 L120.750939,110.738423 L120.750939,95.9198999 L135.569462,95.9198999 L135.569462,110.738423 Z M135.569462,88.4705882 L120.750939,88.4705882 L120.750939,73.6921151 L135.569462,73.6921151 L135.569462,88.4705882 Z M135.569462,66.2428035 L120.750939,66.2428035 L120.750939,51.3842303 L135.569462,51.3842303 L135.569462,66.2428035 Z M142.698373,73.6921151 L157.556946,73.6921151 L157.556946,88.5106383 L142.698373,88.5106383 L142.698373,73.6921151 Z M142.698373,110.778473 L142.698373,95.9599499 L157.556946,95.9599499 L157.556946,110.778473 L142.698373,110.778473 Z" fill="#FFD814"/>
  </g>
</svg>

<svg width="256" height="256" xmlns="http://www.w3.org/2000/svg" preserveAspectRatio="xMidYMid"><path d="m0 0 127.56 256L256 0H0Zm142.698 51.384h14.859v14.859h-14.859V51.384Zm-29.557 59.354H98.323V95.92h14.818v14.818Zm0-22.267H98.323V73.692h14.818v14.779Zm0-22.228H98.323V51.384h14.818v14.859Zm22.428 66.763h-14.818v-14.858h14.818v14.858Zm0-22.268h-14.818V95.92h14.818v14.818Zm0-22.267h-14.818V73.692h14.818v14.779Zm0-22.228h-14.818V51.384h14.818v14.859Zm7.13 7.45h14.858V88.51h-14.859V73.692Zm0 37.085V95.96h14.858v14.818h-14.859Z" fill="#FFD814"/></svg>
